X: 20672
T: John Walsh's
R: jig
M: 6/8
K: Amixolydian
|:BAG ~E3|DEG ~A3|BAG ~E3|DEG DGD|
BAG ~E3|DEF ~G2D|GB/c/d ~g3|edB A3:|
aAA gAA|fAA eAe|GB/c/d gfg|GB/c/d gfg|
aAA gAA|fAA eAe|GB/c/d ~g3|edB A3|
aAA gAA|fAA eAe|GB/c/d ~g3|ede ~g3|
aAA gAA|fAA eAe|GB/c/d ~g3|edB A3||

